assets/award.svg

<svg xmlns="http://www.w3.org/2000/svg" fill="none" viewBox="0 0 20 28">
  <path stroke="#2A2238" stroke-width="1.5" d="m12.5614 2.17804.1099.0569.1224.01857 2.8675.43522 1.2995 2.59282.0555.11068.0881.08698 2.0635 2.03723-.4723 2.86146-.0202.1221.0202.1221.4723 2.8615-2.0635 2.0372-.0881.087-.0555.1106-1.2995 2.5929-2.8675.4352-.1224.0186-.1099.0568-2.5759 1.3336-2.57596-1.3336-.1099-.0568-.12235-.0186-2.86755-.4352-1.29949-2.5929-.05547-.1106-.0881-.087-2.063466-2.0372.472276-2.8615.02016-.1221-.02016-.1221-.472276-2.86146L2.86668 5.47921l.0881-.08698.05547-.11068 1.29949-2.59282 2.86755-.43522.12235-.01857.1099-.05689L9.9855.844537l2.5759 1.333503Zm3.1084 1.08571-.174-.34724-.384-.05827-2.5184-.38218-2.2631-1.1716-.34493-.17857-.34488.17867-2.26122 1.1715-2.51998.38217-.38405.05824-.17402.34728L3.1598 5.5416 1.34587 7.3305l-.27694.27311.06369.38371.41716 2.51288-.41548 2.513-.06337.3832.27644.2729 1.81235 1.7889 1.1415 2.278.17402.3473.38405.0583 2.51998.3821 2.26122 1.1715.34501.1788.345-.1788 2.2612-1.1715 2.52-.3821.384-.0583.1741-.3473 1.1415-2.278 1.8123-1.7889.2762-.2727-.063-.383-.414-2.5136.414-2.51364.063-.38296-.2762-.27266-1.8123-1.78899-1.1415-2.278Zm-5.503 22.25865-.18194-.0455-.1819.0455-6.0681 1.517v-5.5276l2.54666.3861 3.35855 1.7386.34479.1785.34474-.1785 3.3586-1.7386 2.5467-.3861v5.5276l-6.0681-1.517Z"/>
</svg>

<svg width="20" height="28" viewBox="0 0 20 28" fill="none" xmlns="http://www.w3.org/2000/svg">
<path d="M12.5614 2.17804L12.6713 2.23494L12.7937 2.25351L15.6612 2.68873L16.9607 5.28155L17.0162 5.39223L17.1043 5.47921L19.1678 7.51644L18.6955 10.3779L18.6753 10.5L18.6955 10.6221L19.1678 13.4836L17.1043 15.5208L17.0162 15.6078L16.9607 15.7184L15.6612 18.3113L12.7937 18.7465L12.6713 18.7651L12.5614 18.8219L9.9855 20.1555L7.40954 18.8219L7.29964 18.7651L7.17729 18.7465L4.30974 18.3113L3.01025 15.7184L2.95478 15.6078L2.86668 15.5208L0.803214 13.4836L1.27549 10.6221L1.29565 10.5L1.27549 10.3779L0.803214 7.51644L2.86668 5.47921L2.95478 5.39223L3.01025 5.28155L4.30974 2.68873L7.17729 2.25351L7.29964 2.23494L7.40954 2.17805L9.9855 0.844537L12.5614 2.17804ZM15.6698 3.26375L15.4958 2.91651L15.1118 2.85824L12.5934 2.47606L10.3303 1.30446L9.98537 1.12589L9.64049 1.30456L7.37927 2.47606L4.85929 2.85823L4.47524 2.91647L4.30122 3.26375L3.1598 5.5416L1.34587 7.3305L1.06893 7.60361L1.13262 7.98732L1.54978 10.5002L1.1343 13.0132L1.07093 13.3964L1.34737 13.6693L3.15972 15.4582L4.30122 17.7362L4.47524 18.0835L4.85929 18.1418L7.37927 18.5239L9.64049 19.6954L9.9855 19.8742L10.3305 19.6954L12.5917 18.5239L15.1117 18.1418L15.4957 18.0835L15.6698 17.7362L16.8113 15.4582L18.6236 13.6693L18.8998 13.3966L18.8368 13.0136L18.4228 10.5L18.8368 7.98636L18.8998 7.6034L18.6236 7.33074L16.8113 5.54175L15.6698 3.26375Z" stroke="#2A2238" stroke-width="1.5"/>
<path d="M10.1668 25.5224L9.98486 25.4769L9.80296 25.5224L3.73486 27.0394V21.5118L6.28152 21.8979L9.64007 23.6365L9.98486 23.815L10.3296 23.6365L13.6882 21.8979L16.2349 21.5118V27.0394L10.1668 25.5224Z" stroke="#2A2238" stroke-width="1.5"/>
</svg>
